img/logo-cowboy.svg

<svg height="26" viewBox="0 0 165 26" width="165" xmlns="http://www.w3.org/2000/svg"><path d="m12.3971108 20.7460317c-2.3452501 0-4.32241505-.7714285-5.89691255-2.3484127-1.574895-1.5761904-2.34525-3.5551587-2.34525-5.9365079 0-2.381746.770355-4.36071427 2.34525-5.93690475 1.5744975-1.57698413 3.55166245-2.38134921 5.89691255-2.38134921 2.5797749 0 4.7242874.93888889 6.3997499 2.85119048l2.8476901-2.44880952c-2.4458175-2.78452381-5.52843-4.19325397-9.24744-4.19325397-3.45109505 0-6.39975005 1.14047619-8.81178005 3.4547619-2.3790375 2.31468254-3.5850525 5.19960318-3.5850525 8.65436507 0 3.4547619 1.206015 6.3396826 3.5850525 8.6539683 2.41203 2.2809523 5.360685 3.4214285 8.81178005 3.4214285 3.6522299 0 7.0027575-1.5765873 9.2812274-4.2603174l-2.8146974-2.4484127c-1.641675 1.9452381-3.8195775 2.9182539-6.46653 2.9182539" transform="translate(0 .044603)"/><path d="m18.4457888 18.431746c-1.5744975 1.5761905-3.5182725 2.3813492-5.829735 2.3813492-2.31186 0-4.28862755-.8051587-5.86352255-2.3813492-1.5744975-1.5769841-2.34525-3.5555555-2.34525-5.9373016 0-2.347619.7707525-4.32658726 2.34525-5.93690472 1.574895-1.60992063 3.55166255-2.41468254 5.86352255-2.41468254 2.3114625 0 4.2552375.80476191 5.829735 2.41468254 1.574895 1.61031746 2.3790375 3.58928572 2.3790375 5.93690472 0 2.3480159-.8041425 4.3269842-2.3790375 5.9373016m-5.829735-18.07976187c-3.45109505 0-6.36596255 1.17380952-8.74500005 3.52222222-2.3790375 2.31428571-3.5850525 5.19920635-3.5850525 8.62023805 0 3.4214286 1.206015 6.3063493 3.5850525 8.620635s5.293905 3.4880952 8.74500005 3.4880952c3.451095 0 6.3993525-1.1738095 8.77839-3.4880952 2.3790374-2.3142857 3.5850524-5.1992064 3.5850524-8.620635 0-3.4210317-1.206015-6.30595234-3.61884-8.62023805-2.3786399-2.3484127-5.2935074-3.52222222-8.7446024-3.52222222" transform="translate(24.2475 .044603)"/><path d="m74.1592695 16.9448413-5.1678975-16.14603178h-3.6065175l-5.1675 16.14603178-5.5296225-16.14603178h-4.3116825l7.949205 23.37976188h3.73173l5.1257625-16.08214283 5.09436 16.08214283h3.76512l7.9488075-23.37976188h-4.3021425z"/><path d="m96.555135 20.388373h-4.6908975v-6.6416667h4.65711c2.1445125 0 3.6860175 1.4087302 3.6860175 3.2873016 0 1.911508-1.541505 3.3543651-3.65223 3.3543651zm-4.6908975-15.79880951h3.71901c1.7422425 0 2.9824425 1.17420635 2.9824425 2.75079365 0 1.71071429-1.2402 2.88452386-3.0158325 2.88452386h-3.68562zm7.8065025 6.87619051c1.876598-.7043651 2.982045-2.4480159 2.982045-4.69563495 0-1.71071429-.636397-3.15317461-1.90959-4.25992064-1.2398025-1.14047619-2.78091-1.71111111-4.62372-1.71111111h-8.4432975v23.3793651h9.5825325c2.043945 0 3.71901-.6373016 5.05938-1.9456349 1.37376-1.3079365 2.043548-2.9849207 2.043548-4.9642858 0-2.9853174-1.708853-5.2662698-4.690898-5.8027777z"/><path d="m18.3648577 18.431746c-1.5744975 1.5761905-3.5182725 2.3813492-5.829735 2.3813492-2.31186 0-4.28902495-.8051587-5.86352245-2.3813492-1.5744975-1.5769841-2.34525-3.5555555-2.34525-5.9373016 0-2.347619.7707525-4.32658726 2.34525-5.93690472 1.5744975-1.60992063 3.55166245-2.41468254 5.86352245-2.41468254 2.3114625 0 4.2552375.80476191 5.829735 2.41468254 1.574895 1.61031746 2.3790376 3.58928572 2.3790376 5.93690472 0 2.3480159-.8041426 4.3269842-2.3790376 5.9373016m-5.829735-18.07976187c-3.45109495 0-6.36596245 1.17380952-8.74499995 3.52222222-2.3790375 2.31428571-3.58545 5.19920635-3.58545 8.62023805 0 3.4214286 1.2064125 6.3063493 3.58545 8.620635s5.293905 3.4880952 8.74499995 3.4880952c3.451095 0 6.3993525-1.1738095 8.77839-3.4880952s3.5850525-5.1992064 3.5850525-8.620635c0-3.4210317-1.206015-6.30595234-3.6188399-8.62023805-2.3786401-2.3484127-5.2935076-3.52222222-8.7446026-3.52222222" transform="translate(107.7225 .044603)"/><path d="m150.764357.80170635-6.699068 11.52619045-6.7257-11.52619045h-4.517985l8.94534 15.23214285-4.737802 8.1468254h4.597882l4.539053-7.7309524 9.188212-15.64801585z"/><path d="m3.569232 3.99448413c0-.40634921.329925-.73571429.736965-.73571429.4066425 0 .7365675.32936508.7365675.73571429 0 .40595238-.329925.73571428-.7365675.73571428-.40704 0-.736965-.3297619-.736965-.73571428m-1.2890925-.76587302-1.89846.51428572c-.010335.16626984-.00795.3345238.00318.50396825l1.89528.51349206c.14628.03928572.2229975.19920635.162975.33769842l-.7802925 1.80119047c.1252125.11309524.258375.21666667.3963075.31269841l1.58364-1.15912698c.1220325-.08928571.294945-.04960317.3660975.08333333l.922995 1.73015873c.0830775-.01309523.166155-.025.24963-.04404762.0830775-.01865079.1625775-.04444444.24327-.06825396l.0798975-1.95833334c.0059625-.15119047.14469-.26150793.2937525-.23373016l1.93026.35833334c.08268-.1468254.1578075-.29722222.2214075-.45357143l-1.485855-1.28452381c-.11448-.09880952-.11448-.2765873 0-.37539683l1.484265-1.28333333c-.0639975-.15753968-.1347525-.30992063-.21624-.45515873l-1.9338375.35873016c-.1490625.02738095-.28779-.08293651-.2937525-.23412698l-.0798975-1.96071429c-.16059-.04801587-.32436-.08571429-.49131-.11309524l-.924585 1.73333333c-.0711525.13333334-.244065.17261905-.366495.08333334l-1.586025-1.16071429c-.13833.09642857-.2699025.2015873-.393525.31428572l.7802925 1.8015873c.0600225.13849206-.016695.2984127-.162975.33769841" transform="translate(151.05 16.314444)"/></svg>

<svg width="165px" height="26px" viewBox="0 0 165 26" version="1.1" xmlns="http://www.w3.org/2000/svg" xmlns:xlink="http://www.w3.org/1999/xlink" class="wordmark"><desc>Cowboy</desc><g class="letter" transform="translate(0.000000, 0.044603)"><path d="M12.3971108,20.7460317 C10.0518607,20.7460317 8.07469575,19.9746032 6.50019825,18.397619 C4.92530325,16.8214286 4.15494825,14.8424603 4.15494825,12.4611111 C4.15494825,10.0793651 4.92530325,8.10039683 6.50019825,6.52420635 C8.07469575,4.94722222 10.0518607,4.14285714 12.3971108,4.14285714 C14.9768857,4.14285714 17.1213982,5.08174603 18.7968607,6.99404762 L21.6445508,4.5452381 C19.1987333,1.76071429 16.1161208,0.351984127 12.3971108,0.351984127 C8.94601575,0.351984127 5.99736075,1.49246032 3.58533075,3.80674603 C1.20629325,6.12142857 0.00027825,9.00634921 0.00027825,12.4611111 C0.00027825,15.915873 1.20629325,18.8007937 3.58533075,21.1150794 C5.99736075,23.3960317 8.94601575,24.5365079 12.3971108,24.5365079 C16.0493407,24.5365079 19.3998683,22.9599206 21.6783382,20.2761905 L18.8636408,17.8277778 C17.2219658,19.7730159 15.0440633,20.7460317 12.3971108,20.7460317" fill="currentColor"></path></g><g class="letter" transform="translate(24.247500, 0.044603)"><path d="M18.4457888,18.431746 C16.8712913,20.0079365 14.9275163,20.8130952 12.6160538,20.8130952 C10.3041938,20.8130952 8.32742625,20.0079365 6.75253125,18.431746 C5.17803375,16.8547619 4.40728125,14.8761905 4.40728125,12.4944444 C4.40728125,10.1468254 5.17803375,8.16785714 6.75253125,6.55753968 C8.32742625,4.94761905 10.3041938,4.14285714 12.6160538,4.14285714 C14.9275163,4.14285714 16.8712913,4.94761905 18.4457888,6.55753968 C20.0206838,8.16785714 20.8248263,10.1468254 20.8248263,12.4944444 C20.8248263,14.8424603 20.0206838,16.8214286 18.4457888,18.431746 M12.6160538,0.351984127 C9.16495875,0.351984127 6.25009125,1.52579365 3.87105375,3.87420635 C1.49201625,6.18849206 0.28600125,9.0734127 0.28600125,12.4944444 C0.28600125,15.915873 1.49201625,18.8007937 3.87105375,21.1150794 C6.25009125,23.4293651 9.16495875,24.6031746 12.6160538,24.6031746 C16.0671488,24.6031746 19.0154063,23.4293651 21.3944438,21.1150794 C23.7734812,18.8007937 24.9794962,15.915873 24.9794962,12.4944444 C24.9794962,9.0734127 23.7734812,6.18849206 21.3606562,3.87420635 C18.9820163,1.52579365 16.0671488,0.351984127 12.6160538,0.351984127" fill="currentColor"></path></g><g class="letter"><polygon fill="currentColor" points="74.1592695 16.9448413 68.991372 0.798809524 65.3848545 0.798809524 60.2173545 16.9448413 54.687732 0.798809524 50.3760495 0.798809524 58.3252545 24.1785714 62.0569845 24.1785714 67.182747 8.09642857 72.277107 24.1785714 76.042227 24.1785714 83.9910345 0.798809524 79.688892 0.798809524"></polygon></g><g class="letter"><path d="M96.555135,20.388373 L91.8642375,20.388373 L91.8642375,13.7467063 L96.5213475,13.7467063 C98.66586,13.7467063 100.207365,15.1554365 100.207365,17.0340079 C100.207365,18.9455159 98.66586,20.388373 96.555135,20.388373 Z M91.8642375,4.58956349 L95.5832475,4.58956349 C97.32549,4.58956349 98.56569,5.76376984 98.56569,7.34035714 C98.56569,9.05107143 97.32549,10.224881 95.5498575,10.224881 L91.8642375,10.224881 L91.8642375,4.58956349 Z M99.67074,11.465754 C101.547338,10.7613889 102.652785,9.0177381 102.652785,6.77011905 C102.652785,5.05940476 102.016388,3.61694444 100.743195,2.51019841 C99.5033925,1.36972222 97.962285,0.799087302 96.119475,0.799087302 L87.6761775,0.799087302 L87.6761775,24.1784524 L97.25871,24.1784524 C99.302655,24.1784524 100.97772,23.5411508 102.31809,22.2328175 C103.69185,20.924881 104.361638,19.2478968 104.361638,17.2685317 C104.361638,14.2832143 102.652785,12.0022619 99.67074,11.465754 Z" fill="currentColor"></path></g><g class="letter" transform="translate(107.722500, 0.044603)"><path d="M18.3648577,18.431746 C16.7903602,20.0079365 14.8465852,20.8130952 12.5351227,20.8130952 C10.2232627,20.8130952 8.24609775,20.0079365 6.67160025,18.431746 C5.09710275,16.8547619 4.32635025,14.8761905 4.32635025,12.4944444 C4.32635025,10.1468254 5.09710275,8.16785714 6.67160025,6.55753968 C8.24609775,4.94761905 10.2232627,4.14285714 12.5351227,4.14285714 C14.8465852,4.14285714 16.7903602,4.94761905 18.3648577,6.55753968 C19.9397527,8.16785714 20.7438953,10.1468254 20.7438953,12.4944444 C20.7438953,14.8424603 19.9397527,16.8214286 18.3648577,18.431746 M12.5351227,0.351984127 C9.08402775,0.351984127 6.16916025,1.52579365 3.79012275,3.87420635 C1.41108525,6.18849206 0.20467275,9.0734127 0.20467275,12.4944444 C0.20467275,15.915873 1.41108525,18.8007937 3.79012275,21.1150794 C6.16916025,23.4293651 9.08402775,24.6031746 12.5351227,24.6031746 C15.9862177,24.6031746 18.9344752,23.4293651 21.3135127,21.1150794 C23.6925502,18.8007937 24.8985652,15.915873 24.8985652,12.4944444 C24.8985652,9.0734127 23.6925502,6.18849206 21.2797253,3.87420635 C18.9010852,1.52579365 15.9862177,0.351984127 12.5351227,0.351984127" fill="currentColor"></path></g><g class="letter"><polygon fill="currentColor" points="150.764357 0.801706349 144.065289 12.3278968 137.339589 0.801706349 132.821604 0.801706349 141.766944 16.0338492 137.029142 24.1806746 141.627024 24.1806746 146.166077 16.4497222 155.354289 0.801706349"></polygon></g><g class="cogwheel" transform="translate(151.050000, 16.314444)"><path d="M3.569232,3.99448413 C3.569232,3.58813492 3.899157,3.25876984 4.306197,3.25876984 C4.7128395,3.25876984 5.0427645,3.58813492 5.0427645,3.99448413 C5.0427645,4.40043651 4.7128395,4.73019841 4.306197,4.73019841 C3.899157,4.73019841 3.569232,4.40043651 3.569232,3.99448413 M2.2801395,3.22861111 L0.3816795,3.74289683 C0.3713445,3.90916667 0.3737295,4.07742063 0.3848595,4.24686508 L2.2801395,4.76035714 C2.4264195,4.79964286 2.503137,4.95956349 2.4431145,5.09805556 L1.662822,6.89924603 C1.7880345,7.01234127 1.921197,7.1159127 2.0591295,7.21194444 L3.6427695,6.05281746 C3.764802,5.96353175 3.9377145,6.00321429 4.008867,6.13615079 L4.931862,7.86630952 C5.0149395,7.85321429 5.098017,7.84130952 5.181492,7.8222619 C5.2645695,7.80361111 5.3440695,7.77781746 5.424762,7.75400794 L5.5046595,5.7956746 C5.510622,5.64448413 5.6493495,5.53416667 5.798412,5.56194444 L7.728672,5.92027778 C7.811352,5.77345238 7.8864795,5.62305556 7.9500795,5.46670635 L6.4642245,4.18218254 C6.3497445,4.08337302 6.3497445,3.90559524 6.4642245,3.80678571 L7.9484895,2.52345238 C7.884492,2.3659127 7.813737,2.21353175 7.7322495,2.06829365 L5.798412,2.42702381 C5.6493495,2.45440476 5.510622,2.3440873 5.5046595,2.19289683 L5.424762,0.23218254 C5.264172,0.184166667 5.100402,0.146468254 4.933452,0.119087302 L4.008867,1.85242063 C3.9377145,1.98575397 3.764802,2.02503968 3.642372,1.93575397 L2.056347,0.775039683 C1.918017,0.871468254 1.7864445,0.976626984 1.662822,1.0893254 L2.4431145,2.8909127 C2.503137,3.02940476 2.4264195,3.1893254 2.2801395,3.22861111" fill="currentColor"></path></g></svg>
